X: 20224
M: 3/4
L: 1/8
K: C
(Gc) |\
(e/g)z/ (c/e)z/ (d/f)z/ | (e/g)z/ (c/e)z/ (e/g)z/ |\
(d/f)z/ (B/d)z/ (G/B)z/ | cGABcd |\
(e/g)z/ (c/e)z/ (d/f)z/ |\
(e/g)z/ (c/e)z/ (e/g)z/ | (d/f)z/ (B/d)z/ (G/B)z/ | c2z2 :|
|: "^8va"G^F |\
"^_"GABc"^_"dB | c"^_"dec"^_"G2 |\
(e/g)z/ (c/e)z/ (d/f)z/ | (e/g)z/ (c/e)z/ (e/g)z/ |\
(d/f)z/ (B/d)z/ (G/B)z/ | c2z2 :|
|: (GB) |\
(ce)G2(Gc) | (eg)c2(eg) |\
[c'c][bB][aA][gG][fF][eE] | (gf)d2(dc) |\
(Bd)G2(GB) | (dg)B2(dg) | bagfed | c2z2 :|



